data/sheikah/p.svg

<!-- Generated by IcoMoon.io -->
<svg version="1.1" xmlns="http://www.w3.org/2000/svg" width="1024" height="1024" viewBox="0 0 1024 1024">
<title></title>
<g id="icomoon-ignore">
</g>
<path d="M352.5 153.5h319v119.5h-319v-119.5zM352.5 352.5h319v119.5h-319v-119.5zM352.5 552h319v119.5h-319v-119.5zM273 751h478v-597.5l119.5 119.5v478l-119.5 119.5h-478l-119.5-119.5v-478l119.5-119.5v597.5z"></path>
</svg>

<svg xmlns="http://www.w3.org/2000/svg" width="1024" height="1024" viewBox="0 0 1024 1024">
  <title/>
  <path d="M352.5 153.5h319V273h-319zm0 199h319V472h-319zm0 199.5h319v119.5h-319zM273 751h478V153.5L870.5 273v478L751 870.5H273L153.5 751V273L273 153.5z"/>
</svg>
